X:1
T:The Philadelphia Lawyer
M:3/4
L:1/4
K:C
 G,| C2 D| E D C| B, D2-| D2 G,| D E F| E2 D| C3-| C z E/2D/2| C3/2 G/2G/2 G/2|\
 _B3/2 B/2 B| A F2-| F z A/2A/2| G E C| B, C D| C3-| C2||
